assets/i18n/b-en-dk.svg

<?xml version="1.0" encoding="UTF-8"?>
<svg width="231px" height="24px" viewBox="0 0 231 24" version="1.1" xmlns="http://www.w3.org/2000/svg" xmlns:xlink="http://www.w3.org/1999/xlink">
    <!-- Generator: Sketch 51.3 (57544) - http://www.bohemiancoding.com/sketch -->
    <title>SwG-EN Copy-Black</title>
    <desc>Created with Sketch.</desc>
    <defs></defs>
    <g id="SwG-EN-Copy" stroke="none" stroke-width="1" fill="none" fill-rule="evenodd">
        <path d="M6.302,19.368 C5.10599402,19.368 3.93683905,18.9770039 2.7945,18.195 C1.65216095,17.4129961 0.90466843,16.3166737 0.552,14.906 L2.484,14.124 C2.71400115,15.0286712 3.18549644,15.7914969 3.8985,16.4125 C4.61150356,17.0335031 5.41266222,17.344 6.302,17.344 C7.2220046,17.344 8.00783007,17.1025024 8.6595,16.6195 C9.31116992,16.1364976 9.637,15.4810041 9.637,14.653 C9.637,13.7329954 9.31116992,13.0238358 8.6595,12.5255 C8.00783007,12.0271642 6.97667372,11.5633355 5.566,11.134 C4.10932605,10.6739977 3.00533709,10.079837 2.254,9.3515 C1.50266291,8.62316303 1.127,7.69167234 1.127,6.557 C1.127,5.37632743 1.59466199,4.34900437 2.53,3.475 C3.46533801,2.60099563 4.68432582,2.164 6.187,2.164 C7.58234031,2.164 8.71699563,2.51282984 9.591,3.2105 C10.4650044,3.90817015 11.032332,4.67099586 11.293,5.499 L9.361,6.304 C9.22299931,5.78266406 8.88183606,5.29966889 8.3375,4.855 C7.79316394,4.41033111 7.09167096,4.188 6.233,4.188 C5.42032927,4.188 4.72650287,4.41416441 4.1515,4.8665 C3.57649712,5.3188356 3.289,5.88232996 3.289,6.557 C3.289,7.1703364 3.55349735,7.68783123 4.0825,8.1095 C4.61150264,8.53116878 5.38966153,8.91066498 6.417,9.248 C7.22967073,9.50866797 7.90816395,9.76166544 8.4525,10.007 C8.99683605,10.2523346 9.54883054,10.5781646 10.1085,10.9845 C10.6681695,11.3908354 11.0898319,11.8968303 11.3735,12.5025 C11.6571681,13.1081697 11.799,13.8096627 11.799,14.607 C11.799,15.4043373 11.6341683,16.1173302 11.3045,16.746 C10.9748317,17.3746698 10.5378361,17.8729982 9.9935,18.241 C9.44916394,18.6090018 8.86266981,18.8888324 8.234,19.0805 C7.60533019,19.2721676 6.96133663,19.368 6.302,19.368 Z M23.69575,19 L21.67175,19 L21.67175,17.436 L21.57975,17.436 C21.2577484,17.9726693 20.7670866,18.4288315 20.10775,18.8045 C19.4484134,19.1801685 18.7507537,19.368 18.01475,19.368 C16.6040763,19.368 15.534587,18.938671 14.80625,18.08 C14.077913,17.221329 13.71375,16.0713405 13.71375,14.63 L13.71375,7.73 L15.82975,7.73 L15.82975,14.285 C15.82975,16.3856772 16.7574074,17.436 18.61275,17.436 C19.4867544,17.436 20.1997472,17.0833369 20.75175,16.378 C21.3037528,15.6726631 21.57975,14.8600046 21.57975,13.94 L21.57975,7.73 L23.69575,7.73 L23.69575,19 Z M32.3725,19.368 C31.513829,19.368 30.7433367,19.1840018 30.061,18.816 C29.3786633,18.4479982 28.868835,17.9880028 28.5315,17.436 L28.4395,17.436 L28.4395,19 L26.4155,19 L26.4155,2.532 L28.5315,2.532 L28.5315,7.73 L28.4395,9.294 L28.5315,9.294 C28.868835,8.74199724 29.3786633,8.28200184 30.061,7.914 C30.7433367,7.54599816 31.513829,7.362 32.3725,7.362 C33.8291739,7.362 35.0864947,7.93699425 36.1445,9.087 C37.2025053,10.2370057 37.7315,11.6629915 37.7315,13.365 C37.7315,15.0670085 37.2025053,16.4929942 36.1445,17.643 C35.0864947,18.7930057 33.8291739,19.368 32.3725,19.368 Z M32.0275,17.436 C33.0088382,17.436 33.8521631,17.0641704 34.5575,16.3205 C35.2628369,15.5768296 35.6155,14.5916728 35.6155,13.365 C35.6155,12.1383272 35.2628369,11.1531704 34.5575,10.4095 C33.8521631,9.66582961 33.0088382,9.294 32.0275,9.294 C31.0308283,9.294 30.1836702,9.66199632 29.486,10.398 C28.7883298,11.1340037 28.4395,12.1229938 28.4395,13.365 C28.4395,14.6070062 28.7883298,15.5959963 29.486,16.332 C30.1836702,17.0680037 31.0308283,17.436 32.0275,17.436 Z M43.87825,19.368 C42.6209104,19.368 41.5820874,19.0613364 40.76175,18.448 C39.9414126,17.8346636 39.3395852,17.0680046 38.95625,16.148 L40.84225,15.366 C41.440253,16.7766737 42.4599095,17.482 43.90125,17.482 C44.5605866,17.482 45.1010812,17.3363348 45.52275,17.045 C45.9444188,16.7536652 46.15525,16.3703357 46.15525,15.895 C46.15525,15.1589963 45.6415885,14.660668 44.61425,14.4 L42.33725,13.848 C41.6165797,13.6639991 40.9342532,13.3151692 40.29025,12.8015 C39.6462468,12.2878308 39.32425,11.5940044 39.32425,10.72 C39.32425,9.72332835 39.7650789,8.91450311 40.64675,8.2935 C41.5284211,7.6724969 42.5749106,7.362 43.78625,7.362 C44.7829216,7.362 45.6722461,7.58816441 46.45425,8.0405 C47.2362539,8.4928356 47.795915,9.14066245 48.13325,9.984 L46.29325,10.743 C45.8792479,9.74632835 45.0205899,9.248 43.71725,9.248 C43.0885802,9.248 42.5595855,9.37833203 42.13025,9.639 C41.7009145,9.89966797 41.48625,10.2523311 41.48625,10.697 C41.48625,11.3410032 41.9845783,11.7779988 42.98125,12.008 L45.21225,12.537 C46.2702553,12.7823346 47.0522475,13.203997 47.55825,13.802 C48.0642525,14.400003 48.31725,15.0746629 48.31725,15.826 C48.31725,16.8380051 47.9032541,17.68133 47.07525,18.356 C46.2472459,19.03067 45.1815899,19.368 43.87825,19.368 Z M55.568,19.368 C53.8813249,19.368 52.4936721,18.796839 51.405,17.6545 C50.3163279,16.512161 49.772,15.0823419 49.772,13.365 C49.772,11.6476581 50.3163279,10.217839 51.405,9.0755 C52.4936721,7.93316096 53.8813249,7.362 55.568,7.362 C56.8253396,7.362 57.8679959,7.6686636 58.696,8.282 C59.5240041,8.8953364 60.1296648,9.66966199 60.513,10.605 L58.581,11.41 C57.9983304,9.99932628 56.9480076,9.294 55.43,9.294 C54.494662,9.294 53.6705036,9.6773295 52.9575,10.444 C52.2444964,11.2106705 51.888,12.1843274 51.888,13.365 C51.888,14.5456726 52.2444964,15.5193295 52.9575,16.286 C53.6705036,17.0526705 54.494662,17.436 55.43,17.436 C57.0093412,17.436 58.097997,16.7306737 58.696,15.32 L60.582,16.125 C60.1986648,17.0450046 59.5815043,17.8154969 58.7305,18.4365 C57.8794957,19.0575031 56.8253396,19.368 55.568,19.368 Z M64.56675,19 L62.45075,19 L62.45075,7.73 L64.47475,7.73 L64.47475,9.57 L64.56675,9.57 C64.7814177,8.9566636 65.2222467,8.45066866 65.88925,8.052 C66.5562533,7.65333134 67.2040802,7.454 67.83275,7.454 C68.4614198,7.454 68.9904145,7.54599908 69.41975,7.73 L68.61475,9.708 C68.3387486,9.60066613 67.9630857,9.547 67.48775,9.547 C66.7210795,9.547 66.0425863,9.84983031 65.45225,10.4555 C64.8619137,11.0611697 64.56675,11.8546618 64.56675,12.836 L64.56675,19 Z M73.2435,4.901 C72.9521652,5.19233479 72.5995021,5.338 72.1855,5.338 C71.7714979,5.338 71.4188348,5.19233479 71.1275,4.901 C70.8361652,4.60966521 70.6905,4.25700207 70.6905,3.843 C70.6905,3.42899793 70.8361652,3.07633479 71.1275,2.785 C71.4188348,2.49366521 71.7714979,2.348 72.1855,2.348 C72.5995021,2.348 72.9521652,2.49366521 73.2435,2.785 C73.5348348,3.07633479 73.6805,3.42899793 73.6805,3.843 C73.6805,4.25700207 73.5348348,4.60966521 73.2435,4.901 Z M73.2435,19 L71.1275,19 L71.1275,7.73 L73.2435,7.73 L73.2435,19 Z M82.10425,19.368 C81.245579,19.368 80.4750867,19.1840018 79.79275,18.816 C79.1104133,18.4479982 78.600585,17.9880028 78.26325,17.436 L78.17125,17.436 L78.17125,19 L76.14725,19 L76.14725,2.532 L78.26325,2.532 L78.26325,7.73 L78.17125,9.294 L78.26325,9.294 C78.600585,8.74199724 79.1104133,8.28200184 79.79275,7.914 C80.4750867,7.54599816 81.245579,7.362 82.10425,7.362 C83.560924,7.362 84.8182447,7.93699425 85.87625,9.087 C86.9342553,10.2370057 87.46325,11.6629915 87.46325,13.365 C87.46325,15.0670085 86.9342553,16.4929942 85.87625,17.643 C84.8182447,18.7930057 83.560924,19.368 82.10425,19.368 Z M81.75925,17.436 C82.7405882,17.436 83.5839131,17.0641704 84.28925,16.3205 C84.9945869,15.5768296 85.34725,14.5916728 85.34725,13.365 C85.34725,12.1383272 84.9945869,11.1531704 84.28925,10.4095 C83.5839131,9.66582961 82.7405882,9.294 81.75925,9.294 C80.7625784,9.294 79.9154202,9.66199632 79.21775,10.398 C78.5200798,11.1340037 78.17125,12.1229938 78.17125,13.365 C78.17125,14.6070062 78.5200798,15.5959963 79.21775,16.332 C79.9154202,17.0680037 80.7625784,17.436 81.75925,17.436 Z M94.645,19.368 C92.9429915,19.368 91.559172,18.8006723 90.4935,17.666 C89.427828,16.5313277 88.895,15.0976753 88.895,13.365 C88.895,11.7243251 89.4124948,10.3136726 90.4475,9.133 C91.4825052,7.95232743 92.804992,7.362 94.415,7.362 C96.0863417,7.362 97.4241616,7.90632789 98.4285,8.995 C99.4328384,10.0836721 99.935,11.5403242 99.935,13.365 L99.912,13.756 L91.011,13.756 C91.0723336,14.8906723 91.4518298,15.7876634 92.1495,16.447 C92.8471702,17.1063366 93.663662,17.436 94.599,17.436 C96.1170076,17.436 97.1443307,16.7920064 97.681,15.504 L99.567,16.286 C99.1989982,17.1600044 98.5933376,17.8921637 97.75,18.4825 C96.9066624,19.0728363 95.8716728,19.368 94.645,19.368 Z M97.681,12.008 C97.6349998,11.3639968 97.3398361,10.7506696 96.7955,10.168 C96.2511639,9.58533042 95.4423387,9.294 94.369,9.294 C93.5869961,9.294 92.9085029,9.53933088 92.3335,10.03 C91.7584971,10.5206691 91.3636677,11.1799959 91.149,12.008 L97.681,12.008 Z M119.5425,19 L117.3805,19 L114.5745,10.352 L111.7915,19 L109.6525,19 L106.0185,7.73 L108.2265,7.73 L110.7335,16.24 L110.7565,16.24 L113.5395,7.73 L115.7245,7.73 L118.5075,16.24 L118.5305,16.24 L121.0145,7.73 L123.1765,7.73 L119.5425,19 Z M127.00025,4.901 C126.708915,5.19233479 126.356252,5.338 125.94225,5.338 C125.528248,5.338 125.175585,5.19233479 124.88425,4.901 C124.592915,4.60966521 124.44725,4.25700207 124.44725,3.843 C124.44725,3.42899793 124.592915,3.07633479 124.88425,2.785 C125.175585,2.49366521 125.528248,2.348 125.94225,2.348 C126.356252,2.348 126.708915,2.49366521 127.00025,2.785 C127.291585,3.07633479 127.43725,3.42899793 127.43725,3.843 C127.43725,4.25700207 127.291585,4.60966521 127.00025,4.901 Z M127.00025,19 L124.88425,19 L124.88425,7.73 L127.00025,7.73 L127.00025,19 Z M134.665,19.184 C133.484327,19.184 132.583503,18.8696698 131.9625,18.241 C131.341497,17.6123302 131.031,16.7230057 131.031,15.573 L131.031,9.662 L129.053,9.662 L129.053,7.73 L131.031,7.73 L131.031,4.28 L133.147,4.28 L133.147,7.73 L135.907,7.73 L135.907,9.662 L133.147,9.662 L133.147,15.412 C133.147,16.6386728 133.652995,17.252 134.665,17.252 C135.048335,17.252 135.370332,17.1906673 135.631,17.068 L136.367,18.885 C135.906998,19.0843343 135.33967,19.184 134.665,19.184 Z M140.30575,2.532 L140.30575,7.73 L140.21375,9.294 L140.30575,9.294 C140.612418,8.75733065 141.095413,8.30116854 141.75475,7.9255 C142.414087,7.54983145 143.119413,7.362 143.87075,7.362 C145.26609,7.362 146.331746,7.79132904 147.06775,8.65 C147.803754,9.50867096 148.17175,10.6586595 148.17175,12.1 L148.17175,19 L146.05575,19 L146.05575,12.422 C146.05575,10.3366562 145.128093,9.294 143.27275,9.294 C142.398746,9.294 141.685753,9.64282985 141.13375,10.3405 C140.581747,11.0381702 140.30575,11.8469954 140.30575,12.767 L140.30575,19 L138.18975,19 L138.18975,2.532 L140.30575,2.532 Z" id="Subscribe-with" fill="#FFFFFF"></path>
        <g id="Group" transform="translate(156.000000, 0.000000)" fill="#FFFFFF" fill-rule="nonzero">
            <path d="M9.36714443,19 C4.27673649,19 0,14.7346939 0,9.5 C0,4.26530612 4.27673649,0 9.36714443,0 C12.185226,0 14.1896362,1.13265306 15.6979052,2.62244898 L13.92172,4.44897959 C12.8401323,3.40816327 11.3715546,2.59183673 9.36714443,2.59183673 C5.646086,2.59183673 2.73869901,5.67346939 2.73869901,9.5 C2.73869901,13.3265306 5.646086,16.4081633 9.36714443,16.4081633 C11.7783903,16.4081633 13.1477398,15.4081633 14.030871,14.5102041 C14.755237,13.7653061 15.2216097,12.7040816 15.4002205,11.244898 L9.36714443,11.244898 L9.36714443,8.64285714 L17.8610805,8.64285714 C17.9503859,9.10204082 18,9.66326531 18,10.2653061 C18,12.2142857 17.4840132,14.622449 15.8169791,16.3367347 C14.1896362,18.0714286 12.1256891,19 9.36714443,19 Z" id="Shape"></path>
            <path d="M32,13 C32,16.4557596 29.3096447,19 26,19 C22.6903553,19 20,16.4557596 20,13 C20,9.52420701 22.6903553,7 26,7 C29.3096447,7 32,9.52420701 32,13 Z M29.3705584,13 C29.3705584,10.836394 27.8071066,9.3639399 26,9.3639399 C24.1928934,9.3639399 22.6294416,10.8464107 22.6294416,13 C22.6294416,15.1335559 24.1928934,16.6360601 26,16.6360601 C27.8071066,16.6360601 29.3705584,15.1435726 29.3705584,13 Z" id="Shape"></path>
            <path d="M45,13 C45,16.4557596 42.3096447,19 39,19 C35.7005076,19 33,16.4557596 33,13 C33,9.52420701 35.6903553,7 39,7 C42.3096447,7 45,9.52420701 45,13 Z M42.3807107,13 C42.3807107,10.836394 40.8172589,9.3639399 39.0101523,9.3639399 C37.2030457,9.3639399 35.6395939,10.8464107 35.6395939,13 C35.6395939,15.1335559 37.2030457,16.6360601 39.0101523,16.6360601 C40.8172589,16.6460768 42.3807107,15.1435726 42.3807107,13 Z" id="Shape"></path>
            <path d="M57,7.3621186 L57,17.8929188 C57,22.228555 54.5013055,24 51.5430809,24 C48.7571802,24 47.0913838,22.0915371 46.45953,20.5354059 L48.6518712,19.6056419 C49.0443864,20.5647668 50.0017406,21.6902706 51.5430809,21.6902706 C53.4386423,21.6902706 54.6066144,20.4864709 54.6066144,18.2452504 L54.6066144,17.4035694 L54.5204526,17.4035694 C53.9556136,18.1180196 52.8642298,18.7345999 51.4952132,18.7345999 C48.6231506,18.7345999 46,16.1801957 46,12.8917674 C46,9.58376511 48.6327241,7 51.4952132,7 C52.8642298,7 53.9556136,7.6263673 54.5204526,8.31145653 L54.6066144,8.31145653 L54.6066144,7.3621186 L57,7.3621186 Z M54.7789382,12.9015544 C54.7789382,10.8364997 53.4290688,9.31951641 51.7154047,9.31951641 C49.97302,9.31951641 48.5178416,10.8267127 48.5178416,12.9015544 C48.5178416,14.9470351 49.97302,16.4346575 51.7154047,16.4346575 C53.4290688,16.4346575 54.7789382,14.9470351 54.7789382,12.9015544 Z" id="Shape"></path>
            <polygon id="Shape" points="63 1 63 19 60 19 60 1"></polygon>
            <path d="M72.8441203,14.9732888 L74.8896992,16.3355593 C74.2278943,17.3171953 72.633546,19 69.8760255,19 C66.4567001,19 64,16.3656093 64,13 C64,9.43405676 66.4867821,7 69.5852325,7 C72.7037375,7 74.2278943,9.47412354 74.7292616,10.8163606 L75,11.4974958 L66.9680948,14.8230384 C67.579763,16.0250417 68.5423883,16.6460768 69.8860529,16.6460768 C71.2297174,16.6460768 72.1622607,15.9749583 72.8441203,14.9732888 Z M66.5369189,12.8096828 L71.911577,10.5859766 C71.6107566,9.83472454 70.72835,9.31385643 69.6754786,9.31385643 C68.331814,9.31385643 66.4667274,10.4958264 66.5369189,12.8096828 Z" id="Shape"></path>
        </g>
    </g>
</svg>

<svg width="231" height="24" viewBox="0 0 231 24" xmlns="http://www.w3.org/2000/svg"><title>SwG-EN-Black</title><desc>Created with Sketch.</desc><g fill="none"><path d="M6.302 19.368c-1.196 0-2.365-.391-3.507-1.173s-1.89-1.878-2.243-3.289l1.932-.782c.23.905.701 1.667 1.414 2.289.713.621 1.514.931 2.403.931.92 0 1.706-.241 2.357-.725.652-.483.978-1.138.978-1.966 0-.92-.326-1.629-.978-2.128-.652-.498-1.683-.962-3.093-1.391-1.457-.46-2.561-1.054-3.312-1.783-.751-.728-1.127-1.66-1.127-2.794 0-1.181.468-2.208 1.403-3.082.935-.874 2.154-1.311 3.657-1.311 1.395 0 2.53.349 3.404 1.046.874.698 1.441 1.46 1.702 2.288l-1.932.805c-.138-.521-.479-1.004-1.024-1.449-.544-.445-1.246-.667-2.105-.667-.813 0-1.506.226-2.081.679-.575.452-.863 1.016-.863 1.691 0 .613.264 1.131.793 1.553.529.422 1.307.801 2.335 1.138.813.261 1.491.514 2.036.759.544.245 1.096.571 1.656.978.56.406.981.912 1.265 1.518.284.606.425 1.307.425 2.104 0 .797-.165 1.51-.494 2.139-.33.629-.767 1.127-1.311 1.495-.544.368-1.131.648-1.759.84-.629.192-1.273.287-1.932.287zm17.394-.368h-2.024v-1.564h-.092c-.322.537-.813.993-1.472 1.369s-1.357.563-2.093.563c-1.411 0-2.48-.429-3.208-1.288-.728-.859-1.093-2.009-1.093-3.45v-6.9h2.116v6.555c0 2.101.928 3.151 2.783 3.151.874 0 1.587-.353 2.139-1.058.552-.705.828-1.518.828-2.438v-6.21h2.116v11.27zm8.677.368c-.859 0-1.629-.184-2.312-.552-.682-.368-1.192-.828-1.529-1.38h-.092v1.564h-2.024v-16.468h2.116v5.198l-.092 1.564h.092c.337-.552.847-1.012 1.529-1.38.682-.368 1.453-.552 2.312-.552 1.457 0 2.714.575 3.772 1.725 1.058 1.15 1.587 2.576 1.587 4.278 0 1.702-.529 3.128-1.587 4.278-1.058 1.15-2.315 1.725-3.772 1.725zm-.345-1.932c.981 0 1.825-.372 2.53-1.116.705-.744 1.058-1.729 1.058-2.955 0-1.227-.353-2.212-1.058-2.956-.705-.744-1.549-1.115-2.53-1.115-.997 0-1.844.368-2.542 1.104-.698.736-1.047 1.725-1.047 2.967s.349 2.231 1.047 2.967c.698.736 1.545 1.104 2.542 1.104zm11.851 1.932c-1.257 0-2.296-.307-3.117-.92-.82-.613-1.422-1.38-1.806-2.3l1.886-.782c.598 1.411 1.618 2.116 3.059 2.116.659 0 1.2-.146 1.622-.437.422-.291.633-.675.633-1.15 0-.736-.514-1.234-1.541-1.495l-2.277-.552c-.721-.184-1.403-.533-2.047-1.046-.644-.514-.966-1.207-.966-2.082 0-.997.441-1.805 1.322-2.427.882-.621 1.928-.931 3.14-.931.997 0 1.886.226 2.668.678.782.452 1.342 1.1 1.679 1.944l-1.84.759c-.414-.997-1.273-1.495-2.576-1.495-.629 0-1.158.13-1.587.391-.429.261-.644.613-.644 1.058 0 .644.498 1.081 1.495 1.311l2.231.529c1.058.245 1.84.667 2.346 1.265.506.598.759 1.273.759 2.024 0 1.012-.414 1.855-1.242 2.53-.828.675-1.894 1.012-3.197 1.012zm11.69 0c-1.687 0-3.074-.571-4.163-1.713-1.089-1.142-1.633-2.572-1.633-4.289 0-1.717.544-3.147 1.633-4.29 1.089-1.142 2.476-1.713 4.163-1.713 1.257 0 2.3.307 3.128.92.828.613 1.434 1.388 1.817 2.323l-1.932.805c-.583-1.411-1.633-2.116-3.151-2.116-.935 0-1.759.383-2.472 1.15-.713.767-1.07 1.74-1.07 2.921 0 1.181.356 2.154 1.07 2.921.713.767 1.537 1.15 2.472 1.15 1.579 0 2.668-.705 3.266-2.116l1.886.805c-.383.92-1 1.69-1.852 2.311-.851.621-1.905.931-3.163.931zm8.999-.368h-2.116v-11.27h2.024v1.84h.092c.215-.613.655-1.119 1.323-1.518.667-.399 1.315-.598 1.944-.598s1.158.092 1.587.276l-.805 1.978c-.276-.107-.652-.161-1.127-.161-.767 0-1.445.303-2.035.909-.59.606-.886 1.399-.886 2.38v6.164zm8.677-14.099c-.291.291-.644.437-1.058.437-.414 0-.767-.146-1.058-.437-.291-.291-.437-.644-.437-1.058 0-.414.146-.767.437-1.058.291-.291.644-.437 1.058-.437.414 0 .767.146 1.058.437.291.291.437.644.437 1.058 0 .414-.146.767-.437 1.058zm0 14.099h-2.116v-11.27h2.116v11.27zm8.861.368c-.859 0-1.629-.184-2.311-.552-.682-.368-1.192-.828-1.529-1.38h-.092v1.564h-2.024v-16.468h2.116v5.198l-.092 1.564h.092c.337-.552.847-1.012 1.529-1.38.682-.368 1.453-.552 2.311-.552 1.457 0 2.714.575 3.772 1.725 1.058 1.15 1.587 2.576 1.587 4.278 0 1.702-.529 3.128-1.587 4.278-1.058 1.15-2.315 1.725-3.772 1.725zm-.345-1.932c.981 0 1.825-.372 2.53-1.116.705-.744 1.058-1.729 1.058-2.955 0-1.227-.353-2.212-1.058-2.956-.705-.744-1.549-1.115-2.53-1.115-.997 0-1.844.368-2.541 1.104-.698.736-1.046 1.725-1.046 2.967s.349 2.231 1.046 2.967c.698.736 1.545 1.104 2.541 1.104zm12.886 1.932c-1.702 0-3.086-.567-4.151-1.702-1.066-1.135-1.599-2.568-1.599-4.301 0-1.641.517-3.051 1.553-4.232 1.035-1.181 2.357-1.771 3.968-1.771 1.671 0 3.009.544 4.013 1.633s1.507 2.545 1.507 4.37l-.023.391h-8.901c.061 1.135.441 2.032 1.139 2.691.698.659 1.514.989 2.45.989 1.518 0 2.545-.644 3.082-1.932l1.886.782c-.368.874-.974 1.606-1.817 2.197-.843.59-1.878.885-3.105.885zm3.036-7.36c-.046-.644-.341-1.257-.885-1.84-.544-.583-1.353-.874-2.427-.874-.782 0-1.46.245-2.035.736-.575.491-.97 1.15-1.184 1.978h6.532zm21.862 6.992h-2.162l-2.806-8.648-2.783 8.648h-2.139l-3.634-11.27h2.208l2.507 8.51h.023l2.783-8.51h2.185l2.783 8.51h.023l2.484-8.51h2.162l-3.634 11.27zm7.458-14.099c-.291.291-.644.437-1.058.437-.414 0-.767-.146-1.058-.437-.291-.291-.437-.644-.437-1.058 0-.414.146-.767.437-1.058.291-.291.644-.437 1.058-.437.414 0 .767.146 1.058.437.291.291.437.644.437 1.058 0 .414-.146.767-.437 1.058zm0 14.099h-2.116v-11.27h2.116v11.27zm7.665.184c-1.181 0-2.081-.314-2.702-.943s-.931-1.518-.931-2.668v-5.911h-1.978v-1.932h1.978v-3.45h2.116v3.45h2.76v1.932h-2.76v5.75c0 1.227.506 1.84 1.518 1.84.383 0 .705-.061.966-.184l.736 1.817c-.46.199-1.027.299-1.702.299zm5.641-16.652v5.198l-.092 1.564h.092c.307-.537.79-.993 1.449-1.369s1.365-.564 2.116-.564c1.395 0 2.461.429 3.197 1.288.736.859 1.104 2.009 1.104 3.45v6.9h-2.116v-6.578c0-2.085-.928-3.128-2.783-3.128-.874 0-1.587.349-2.139 1.046-.552.698-.828 1.506-.828 2.426v6.233h-2.116v-16.468h2.116z" fill="#fff"/><g fill-rule="nonzero"><path d="M165.367 19c-5.09 0-9.367-4.265-9.367-9.5s4.277-9.5 9.367-9.5c2.818 0 4.822 1.133 6.331 2.622l-1.776 1.827c-1.082-1.041-2.55-1.857-4.555-1.857-3.721 0-6.628 3.082-6.628 6.908 0 3.827 2.907 6.908 6.628 6.908 2.411 0 3.781-1 4.664-1.898.724-.745 1.191-1.806 1.369-3.265h-6.033v-2.602h8.494c.089.459.139 1.02.139 1.622 0 1.949-.516 4.357-2.183 6.071-1.627 1.735-3.691 2.663-6.45 2.663z" id="Shape" fill="#4285F4"/><path d="M188 13c0 3.456-2.69 6-6 6s-6-2.544-6-6c0-3.476 2.69-6 6-6s6 2.524 6 6zm-2.629 0c0-2.164-1.563-3.636-3.371-3.636-1.807 0-3.371 1.482-3.371 3.636 0 2.134 1.563 3.636 3.371 3.636 1.807 0 3.371-1.492 3.371-3.636z" id="Shape" fill="#E94235"/><path d="M201 13c0 3.456-2.69 6-6 6-3.299 0-6-2.544-6-6 0-3.476 2.69-6 6-6s6 2.524 6 6zm-2.619 0c0-2.164-1.563-3.636-3.371-3.636-1.807 0-3.371 1.482-3.371 3.636 0 2.134 1.563 3.636 3.371 3.636 1.807.01 3.371-1.492 3.371-3.636z" id="Shape" fill="#FABB05"/><path d="M213 7.362v10.531c0 4.336-2.499 6.107-5.457 6.107-2.786 0-4.452-1.908-5.084-3.465l2.192-.93c.393.959 1.35 2.085 2.891 2.085 1.896 0 3.064-1.204 3.064-3.445v-.842h-.086c-.565.714-1.656 1.331-3.025 1.331-2.872 0-5.495-2.554-5.495-5.843 0-3.308 2.633-5.892 5.495-5.892 1.369 0 2.46.626 3.025 1.311h.086v-.949h2.393zm-2.221 5.539c0-2.065-1.35-3.582-3.064-3.582-1.742 0-3.198 1.507-3.198 3.582 0 2.045 1.455 3.533 3.198 3.533 1.714 0 3.064-1.488 3.064-3.533z" id="Shape" fill="#4285F4"/><path id="Shape" fill="#34A853" d="M219 1v18h-3v-18z"/><path d="M228.844 14.973l2.046 1.362c-.662.982-2.256 2.664-5.014 2.664-3.419 0-5.876-2.634-5.876-6 0-3.566 2.487-6 5.585-6 3.119 0 4.643 2.474 5.144 3.816l.271.681-8.032 3.326c.612 1.202 1.574 1.823 2.918 1.823s2.276-.671 2.958-1.673zm-6.307-2.164l5.375-2.224c-.301-.751-1.183-1.272-2.236-1.272-1.344 0-3.209 1.182-3.139 3.496z" fill="#E94235"/></g></g></svg>
